src/images/app-icons/light-theme/CloudDatabasesETCD.svg

<svg xmlns="http://www.w3.org/2000/svg" viewBox="0 0 129 129"><defs><linearGradient id="CloudDatabasesETCD_svg__b" y1="129" x2="129" gradientUnits="userSpaceOnUse"><stop offset=".1" stop-color="#08bdba"/><stop offset=".9" stop-color="#0f62fe"/></linearGradient><mask id="CloudDatabasesETCD_svg__a" x="0" y="0" width="129" height="129" maskUnits="userSpaceOnUse"><path d="M26.947 96.75V32.03H69.6v10.849H39.187v15.669h26.888V69.4H39.187v16.5H69.6v10.85zM96.951 96.75q-6.118 0-9.319-3.189t-3.2-9.113V57.9h-7.138v-9.549H81q2.686 0 3.661-1.252a6.049 6.049 0 00.973-3.755v-8.252H96.3v13.259h9.921V57.9H96.3v29.3h9.181v9.55z" fill="#fff"/></mask></defs><g data-name="Layer 2"><g mask="url(#CloudDatabasesETCD_svg__a)" data-name="Light theme icons"><path fill="url(#CloudDatabasesETCD_svg__b)" d="M0 0h129v129H0z"/></g></g></svg>

<svg xmlns="http://www.w3.org/2000/svg" xmlns:xlink="http://www.w3.org/1999/xlink" viewBox="0 0 129 129"><defs><style>.cls-1{fill:#fff;}.cls-2{mask:url(#mask);}.cls-3{fill:url(#linear-gradient);}</style><mask id="mask" x="0" y="0" width="129" height="129" maskUnits="userSpaceOnUse"><path class="cls-1" d="M26.947,96.75V32.03H69.6V42.879H39.187V58.548H66.075V69.4H39.187V85.9H69.6V96.75Z"/><path class="cls-1" d="M96.951,96.75q-6.118,0-9.319-3.189t-3.2-9.113V57.9H77.294V48.351H81q2.686,0,3.661-1.252a6.049,6.049,0,0,0,.973-3.755V35.092H96.3V48.351h9.921V57.9H96.3V87.2h9.181V96.75Z"/></mask><linearGradient id="linear-gradient" y1="129" x2="129" gradientUnits="userSpaceOnUse"><stop offset="0.1" stop-color="#08bdba"/><stop offset="0.9" stop-color="#0f62fe"/></linearGradient></defs><g id="Layer_2" data-name="Layer 2"><g id="Light_theme_icons" data-name="Light theme icons"><g class="cls-2"><rect id="Color" class="cls-3" width="129" height="129"/></g></g></g></svg>
